packages/core/src/svgs/blur.svg

<svg width="24" height="24" viewBox="0 0 24 24" fill="none" xmlns="http://www.w3.org/2000/svg">
<g clip-path="url(#clip0_31_7196)">
<path d="M0 0H24V24H0V0Z" fill="url(#paint0_linear_31_7196)"/>
<path fill-rule="evenodd" clip-rule="evenodd" d="M10.8129 5.57129H6V11.5713H10.8129C11.1555 11.3959 11.4457 11.133 11.6542 10.8094C11.8626 10.4858 11.9819 10.1129 12 9.72843C12 9.18843 11.67 8.71272 11.5071 8.54129C11.9014 8.29272 12 7.667 12 7.38415C12 6.50129 11.5071 5.88415 10.8129 5.57129ZM7.28571 6.857H10.0714C10.2419 6.857 10.4054 6.92473 10.526 7.04529C10.6466 7.16585 10.7143 7.32936 10.7143 7.49986C10.7143 7.67036 10.6466 7.83387 10.526 7.95443C10.4054 8.07499 10.2419 8.14272 10.0714 8.14272H7.28571V6.857ZM10.0714 8.99986H7.28571V10.2856H10.0714C10.2419 10.2856 10.4054 10.2178 10.526 10.0973C10.6466 9.97673 10.7143 9.81321 10.7143 9.64272C10.7143 9.47222 10.6466 9.30871 10.526 9.18815C10.4054 9.06759 10.2419 8.99986 10.0714 8.99986Z" fill="#FD6E26"/>
<path d="M12.8571 10.2684V5.57129H14.1429V9.70272L14.6571 10.2856H18.4286V11.5713H14.0957L12.8571 10.2684ZM6 17.0956V12.4284H7.28571V16.5684L7.84286 17.1427H10.2171L10.7143 16.5684V12.4284H12V17.0956L10.8171 18.4284H7.23857L6 17.0956ZM12.8571 12.4284H17.3357C17.8286 12.6213 18.4286 13.4527 18.4286 14.0956C18.4286 14.8584 18.0514 15.2013 17.8586 15.3727L17.8286 15.4027C18.03 15.5313 18.4286 15.9341 18.4286 16.5127V18.4284H17.1429V16.6499C17.1171 16.4484 16.8686 15.9213 16.4486 15.857H14.1429V18.4284H12.8571V12.4284ZM16.2857 13.2856H14.1429V14.9999H16.2857C16.513 14.9999 16.7311 14.9096 16.8918 14.7488C17.0526 14.5881 17.1429 14.37 17.1429 14.1427C17.1429 13.9154 17.0526 13.6974 16.8918 13.5366C16.7311 13.3759 16.513 13.2856 16.2857 13.2856Z" fill="#FD6E26"/>
</g>
<defs>
<linearGradient id="paint0_linear_31_7196" x1="4.46571" y1="4.16143" x2="29.2071" y2="32.58" gradientUnits="userSpaceOnUse">
<stop stop-color="#1A1E21"/>
<stop offset="1" stop-color="#06060A"/>
</linearGradient>
<clipPath id="clip0_31_7196">
<rect width="24" height="24" fill="white"/>
</clipPath>
</defs>
</svg>

<svg xmlns="http://www.w3.org/2000/svg" width="24" height="24" fill="none" viewBox="0 0 24 24"><g clip-path="url(#a)"><path fill="url(#b)" d="M0 0h24v24H0z"/><path fill="#FD6E26" fill-rule="evenodd" d="M10.813 5.571H6v6h4.813A2.19 2.19 0 0 0 12 9.728c0-.54-.33-1.015-.493-1.187.394-.248.493-.874.493-1.157 0-.883-.493-1.5-1.187-1.813M7.286 6.857h2.785a.643.643 0 0 1 0 1.286H7.286zM10.07 9H7.286v1.286h2.785a.643.643 0 0 0 0-1.286" clip-rule="evenodd"/><path fill="#FD6E26" d="M12.857 10.268V5.571h1.286v4.132l.514.583h3.772v1.285h-4.333zM6 17.096v-4.668h1.286v4.14l.557.575h2.374l.497-.575v-4.14H12v4.668l-1.183 1.332H7.24zm6.857-4.668h4.479c.493.193 1.093 1.025 1.093 1.668 0 .762-.378 1.105-.57 1.277l-.03.03c.201.128.6.531.6 1.11v1.915h-1.286V16.65c-.026-.202-.274-.729-.694-.793h-2.306v2.571h-1.286zm3.429.858h-2.143V15h2.143a.857.857 0 1 0 0-1.714"/></g><defs><linearGradient id="b" x1="4.466" x2="29.207" y1="4.161" y2="32.58" gradientUnits="userSpaceOnUse"><stop stop-color="#1A1E21"/><stop offset="1" stop-color="#06060A"/></linearGradient><clipPath id="a"><path fill="#fff" d="M0 0h24v24H0z"/></clipPath></defs></svg>
